src/img/icons/facebook.svg

<svg fill="none" height="55" viewBox="0 0 56 55" width="56" xmlns="http://www.w3.org/2000/svg"><path d="m55.125 28c0-14.9844-12.1406-27.125-27.125-27.125s-27.125 12.1406-27.125 27.125c0 13.5625 9.8438 24.8281 22.8594 26.7969v-18.9219h-6.8906v-7.875h6.8906v-5.9062c0-6.7813 4.0468-10.6094 10.1718-10.6094 3.0626 0 6.125.5468 6.125.5468v6.6719h-3.3906c-3.3906 0-4.4844 2.0781-4.4844 4.2657v5.0312h7.5469l-1.2031 7.875h-6.3438v18.9219c13.0157-1.9688 22.9688-13.2344 22.9688-26.7969z" fill="#000"/></svg>

<svg width="56" height="55" viewBox="0 0 56 55" fill="none" xmlns="http://www.w3.org/2000/svg">
<path d="M55.125 28C55.125 13.0156 42.9844 0.875 28 0.875C13.0156 0.875 0.875 13.0156 0.875 28C0.875 41.5625 10.7188 52.8281 23.7344 54.7969V35.875H16.8438V28H23.7344V22.0938C23.7344 15.3125 27.7812 11.4844 33.9062 11.4844C36.9688 11.4844 40.0312 12.0312 40.0312 12.0312V18.7031H36.6406C33.25 18.7031 32.1562 20.7812 32.1562 22.9688V28H39.7031L38.5 35.875H32.1562V54.7969C45.1719 52.8281 55.125 41.5625 55.125 28Z" fill="black"/>
</svg>
